X: 1
T:Sunset, The
S:Altan
C:Cathal McConnell \& Seamus Quinn
Z:Juergen.Gier@post.rwth-aachen.de
R:Reel
L:1/8
M:4/4
K:D
ed \
| cFFF c2dc | BGBd e2ed | =cdeg d2Ad | dfed cded |
| cFFF c2dc | BGBd e2ed | =cdeg fde^c | dfec d2:|
|: ag \
| fdfg a2gf | e=cef g2za | fggf gfec | dfed cded |
| cFFF c2dc | BGBd e2ed | =cdeg fde^c | dfec d2 :|
